X: 40
T:Waiting For The Federals
% Nottingham Music Database
S:via PR
M:4/4
L:1/4
K:G
"G"B2 BA/2B/2|dB B/2A/2G|"Em"B2 d3/2B/2|"Am"A/2B/2A/2G/2 "D7"EG|
"G"B2 BA/2B/2|"G"dB B/2A/2G|"C"A/2B/2A/2G/2 "D7"ED2/3E2/3F2/3|"G"G2 -G2::
"G"g2 g/2a/2g/2e/2|dB B/2A/2G|"Em"g2 g/2f/2g/2a/2|"Am"b/2ef/2 "D7"ef|
"G"g/2a/2b/2a/2 "Em"ge|"D7"d3/2A/2 "G"B/2A/2G|"C"A/2B/2A/2G/2 "D7"E D2/3E2/3F2/3\
|"G"G2 -G2:|


